!! 00000] TT[00
!! NN
!!!OTL: Women yaolai yi ge ren
!!!ARE: Asia, Ostasien, China, Jiangxi, Yongxiu
!! Ethnic Group: Han
!! Xiaodiao - Artikel, Essen 1991
!!!SCT: C0000
!!!YEM: Copyright 1995, estate of Helmut Schaffrath.
**kern
*ICvox
*Ivox
!! 2+3 metric grouping
!! Mixed meters:  5/8; 4/8
*M4/8
*k[f#c#g#]
*A:
{8aa
8ff#
16ff#
16ee
4ee
=1
8aa
16aa
16ff#
16ff#
16ee
4ee}
=2
{8dd
8ff#
16ee
16ff#
8ee
8dd
=3
8b
8cc#
16.b
32a
4a}
=4
{8b
16b
16f#
8a
4a
=5
8ee
16ee
16dd
16b
16dd
4dd}
=6
{8ee
8ee
8ee
16dd
16dd
=7
8ee
8dd
8.b
16a
=8
2a}
==
!!!AGN: Xiaodiao, Yaoqu
!! Das Lied wird zweiphrasig aufgefaát.
!!!ONB: ESAC (Essen Associative Code) Database: CHINAx
!!!AMT: irregular
!!!AIN: vox
!!!EED: Helmut Schaffrath
!!!EEV: 1.0
*-
